X:1
T:Rest
T:Rest
T:Lyrics:   Possibly  Roland Hill  -   (1744-1833); Public domain
T:Lyrics:   Possibly  Roland Hill  -   (1744-1833); Public domain
Z:Lyrics:   Possibly  Roland Hill  -   (1744-1833);
Z:Public domain
%%score { ( 1 2 ) ( 3 4 ) }
L:1/8
Q:1/4=112
M:1/4
K:Db
V:1 treble nm="P1"
V:2 treble 
V:3 bass nm="P2"
V:4 bass 
V:1
"^Editor: John Henry Fowler""^( Revision: 12-3-2007 )" F2 |[M:4/4] F3 E D2 A2 | A2 G2 F2 A2 | %3
"^( 1875 )" d3 c B2 A2 | e2 d2 c2 B2 | A3 A d2"^John Stainer" c2 |"^( 1840 - 1901 )" f2 e2 d2 c2 | %7
 B2 F2 A3 =G | F2 E2 A2 A2 | F3 E D2 B2 | G2 F2 E2 _d2 | c2 B2 A2 D2 | F4 E4 |[M:3/4] D6 |] %14
V:2
 D2 |[M:4/4] C3 C D2 D2 | D2 E2 F2 F2 | F3 F F2 A2 | A2 =G2 G2 G2 | F3 F A2 =G2 | F2 F2 =G2 =A2 | %7
 B2 D2 D3 D | D2 D2 C2 C2 | C4 D2 D2 | =D4 E2 E2 | E2 E2 E2 D2 | D4 C4 |[M:3/4] D6 |] %14
V:3
 A,2 |[M:4/4] A,3 A, A,2 A,2 | B,2 C2 D2 F,2 | B,3 =A, B,2 =B,2 | C2 B,2 C2 C2 | C3 C F,2 =G,2 | %6
 A,2 =A,2 B,2 E2 | %7
"^1.  We sing His love, who once was slain,Who soon o’er death revived again,That all His saints through Him might haveEternal conquests o’er the grave.Refrain   Soon shall the trumpet sound, and we   Shall rise to immortality.2.  The saints who now with Jesus sleepHis own almighty power shall keep,Till dawns the bright illustrious dayWhen death itself shall die away.Refrain" D2 A,2 B,3 B, | %8
 A,2"^5.  Hasten, dear Lord, the glorious day,And this delightful scene display,When all Thy saints from death shall riseRaptured in bliss beyond the skies.Refrain" =G,2 A,2 A,2 | %9
 A,4 A,4 | %10
"^3.  How loud shall our glad voices sing,When Christ His risen saints shall bring,From beds of dust and silent clay,To realms of everlasting day!Refrain4.  When Jesus we in glory meet,Our utmost joys shall be complete,When landed on that heavenly shore,Death and the curse will be no more.Refrain" B,4 B,2 E,2 | %11
 F,2 =G,2 A,2 F,2 | A,4 G,4 |[M:3/4] F,6 |] %14
V:4
 D,2 |[M:4/4] G,3 G, F,2 F,2 | E,2 A,,2 D,2 D,2 | B,,3 C, D,2 =D,2 | E,2 E,2 =E,2 _F,2 | %5
 F,3 F, F,2 E,2 | D,2 C,2 B,,2 C,2 | D,2 F,2 E,3 E, | E,2 E,2 A,,2 A,,2 | G,,4 F,,4 | %10
 A,,4 G,,2 =G,,2 | A,,2 B,,2 C,2 D,2 | A,,4 A,,4 |[M:3/4] D,6 |] %14

